X:1
T:사랑이 식었다고 말해도 돼
T:사랑이 식었다고 말해도 돼
T:한상원,이진성 작사,작곡
T:악보바다
T:악보바다
C:한상원,이진성 작사,작곡
Z:악보바다
L:1/8
M:4/4
K:E
V:1 treble nm="남성" snm="M."
V:1
 GBFB E2 D/E/B/D/ |[M:2/4] C2 A,/B,/C/E/ |[M:4/4] z4 z EFG || G/F/F z z EFG z | G<F E/(F/E) EFG z | %5
w: ||어 떻 게|보 면 참 전 쟁 같|았 다 우 리- * 행 복 한|
 G/F/F z z EFG z | G/A/ F2 E/(F/ F)EFG | G/F/ F2 z BBG z | FE E/E/C/E/ E/EFG z/ | %9
w: 나 날 의 수 만 큼|아 프 게 했 던 * 날 들 도|많 았 고 울 렸 던|날 도- * 많 았 어- * 길 었 던|
 A/ z E/ EE/ z/ AGEE | DE E2 z4 | CG A/A/A/B/ GF/F/ F2 | B,B B/B/B/c/ dc/G/ G2 | %13
w: 시 간 을 지 켜 줬 던- *|너 야- *|너 를 너 무 사 랑 해- * 서 *|그 게 멀 어 지 게 한 걸 까- *|
 AG/A/ AG/A/ AG/F/ EE/F/ | F2 z2 efg z || (gf/)feB/ Befg | g2 f/e(f/ e)efg | %17
w: 어 리 숙- * 한 내- * 잘 못- * 인 가-|* 사 랑 이|식- * 었 다 고- * 솔 직 히|말 해 도 돼- * 가 슴 는|
 a2 a/b(f/ e) z c/(b/ z | b/a/4b/4(a) a/)a/4g/4f/g/ fe f/g(g/ | g) z f/gg/ gefg | (g3 f/g/) f4 | %21
w: 설 렘 이- * * 네 게|* * * * * * * * * * 온 거 라 고-|* 나 보 다- * 좋 은 사|람- * * 이|
 z aag a(g/e/) ed/(e/ | e4) z4 | z8 | z4 z EFG || G/F/F z z EFG z | G<F z E/(G/ E)EFG | %27
w: 너 에 게 생 긴 거- * 라 고|||다 른 핑|계 겠 지 우 린 안|맞 는 다 고- * 질 리 게|
 G/F/F z z BBG z | F/E/ E2 C/(E/ E)EFG | G/F/F z z BBB z | B<e eB/(B/ B)EFG | %31
w: 들 었 어 니 맘 이|떠 나 간 후 로- * 혹 시 나|우 리 가 괜 찮 은|시 절 에 만 나- * 잘 해 줬|
 A/G/ E2 C/E/ A/G(E/ E)D/(F/ | F<)(E E)(B G/F/E) z2 || AA A/A/A/B/ (GF/)(F/ F2) | %34
w: 다 면 은 우 리 조 금 은- * 다 를-|* 까- * 우- * * *|너 를 너 무 사 랑 해- * 서- *|
 BB B/B/d/e/ dc/(G/ G2) | cB/(c/ c)B/(c/ c)e/(e/ e/)g(a/4g/4 | f) z ef g z z2 || %37
w: 그 게 멀 어 지 게 한 걸 까- *|철 이 없- * 는 내- * 욕 심- * 인 가- *|* 사 랑 이|
 (g>f) fe/(B/ B)efg | g2 f/e(f/ e)efg | a2 a/b(f/ e) z c/((b/ z | b)a (a/)a/4)a/4g/a/ fe f/g(g/ | %41
w: 식- * 었 다 고- * 솔 직 히|말 해 도 돼- * 가 슴 뛰|는 설 렘 이- * 네 게|* * * * * * * * 온 거 라 고-|
 g) z f/gg/ gefg | (g3 f/g/) f4 | z aag a(g/e/) ed/((f/ || f/)e/4f/4 e2) z e/e/e/(e/ e/)e/e/f/ | %45
w: * 나 보 다- * 좋 은 사|람- * * 이|너 에 게 생 긴- * 거 라 고-|* * * * 아 침 이 까- * 맣 도 록|
 (f/B/)B z2 ^e/e/e/(f/ f/)gg/ | g/a/ a2 z a/g/a b(b | b4) bba z || g2 f/e(B/ B)efg | %49
w: 취- * 해 잊 으 려 날- * 망 가|뜨 려 도 남 아 있 는 너-|* 나 보 다|더 어 디 가- * 좋 아 서|
 g2 f/e(f/ e)e fg/(a/ | a2) a/b(g/4f/4 e3/2f/4g/4) A/(b/ z | %51
w: 떠 난 거 니- * 인 정 하 려-|* 해 봐 도- * * * * 미 워-|
 b/)!fermata!aa/ a/4g/4f/g/fef/ g(g/ z/ | g) z f/gg/ gefg | (gg/)bc'/ c'4 z | aabg f/(f/ e2) z | %55
w: * * * 워 * * * * 내 가 좀 더-|* 잘 나 서- * * 성 공|할 때- * * 쯤|니 앞 에 서 볼 게- *|
[M:2/4] z a ag |[M:4/4] a/(ab/ b6) |[M:3/4] z2 z2 gf/g/4(f/4 ||[M:4/4] e4) z4 | !fermata!z8 | z8 | %61
w: 그 때 넌|홀 로- * *|이 기 를 *||||
 z8 |] %62
w: |

